assets/idea_icon.svg

<svg width="36" height="36" viewBox="0 0 36 36" fill="none" xmlns="http://www.w3.org/2000/svg">
<g clip-path="url(#clip0)">
<path d="M17.8703 -0.0433059C17.8108 -0.0324886 17.7513 -0.0162627 17.6972 -3.66718e-05C17.0536 0.145997 16.5993 0.724724 16.6155 1.38458V5.53842C16.6101 6.03602 16.8697 6.50116 17.3024 6.75537C17.7351 7.00417 18.2651 7.00417 18.6978 6.75537C19.1305 6.50116 19.3901 6.03602 19.3847 5.53842V1.38458C19.4009 0.984339 19.2387 0.600324 18.952 0.329891C18.66 0.0540499 18.2651 -0.0811665 17.8703 -0.0433059ZM5.97126 4.84612C5.45203 4.93806 5.03557 5.31667 4.88953 5.81967C4.7435 6.32809 4.89494 6.86895 5.27895 7.22592L8.22126 10.1682C8.5566 10.5793 9.09206 10.7686 9.61129 10.6496C10.1251 10.5306 10.5308 10.125 10.6497 9.61114C10.7687 9.09191 10.5794 8.55645 10.1684 8.22112L7.22607 5.27881C6.93941 4.97052 6.52295 4.81367 6.10107 4.84612C6.0578 4.84612 6.01453 4.84612 5.97126 4.84612ZM29.5963 4.84612C29.2826 4.88939 28.9905 5.04624 28.7741 5.27881L25.8318 8.22112C25.4208 8.55645 25.2315 9.09191 25.3505 9.61114C25.4695 10.125 25.8751 10.5306 26.3889 10.6496C26.9082 10.7686 27.4436 10.5793 27.779 10.1682L30.7213 7.22592C31.154 6.81487 31.2784 6.17124 31.0241 5.63037C30.7645 5.0841 30.1912 4.7704 29.5963 4.84612ZM18.0001 9.86535C13.5542 9.86535 9.95203 13.4675 9.95203 17.9134C9.95203 22.4783 13.8895 25.134 13.8895 27.4759V28.0384C13.8895 28.6063 14.3655 29.0769 14.928 29.0769H21.0722C21.6347 29.0769 22.1107 28.6063 22.1107 28.0384V27.4759C22.1107 25.1286 26.0482 22.5541 26.0482 17.9134C26.0482 13.4675 22.446 9.86535 18.0001 9.86535ZM18.0001 12.548C19.0169 12.548 19.9634 12.8347 20.7693 13.3269C20.672 13.3215 20.5638 13.2836 20.4665 13.2836C16.6858 13.2836 13.6299 16.3449 13.6299 20.0769C13.6299 20.3095 13.6516 20.542 13.6732 20.7692C13.0674 19.92 12.678 18.8545 12.678 17.7403C12.678 14.8575 15.074 12.548 18.0001 12.548ZM0.995301 16.6153C0.232681 16.7235 -0.302776 17.4321 -0.194603 18.1947C-0.08643 18.9573 0.622104 19.4928 1.38472 19.3846H5.53857C6.03617 19.39 6.50131 19.1304 6.75552 18.6977C7.00432 18.265 7.00432 17.7349 6.75552 17.3022C6.50131 16.8696 6.03617 16.6099 5.53857 16.6153H1.38472C1.34145 16.6153 1.29819 16.6153 1.25492 16.6153C1.21165 16.6153 1.16838 16.6153 1.12511 16.6153C1.08184 16.6153 1.03857 16.6153 0.995301 16.6153ZM30.0722 16.6153C29.3096 16.7235 28.7741 17.4321 28.8823 18.1947C28.9905 18.9573 29.699 19.4928 30.4616 19.3846H34.6155C35.1131 19.39 35.5782 19.1304 35.8324 18.6977C36.0812 18.265 36.0812 17.7349 35.8324 17.3022C35.5782 16.8696 35.1131 16.6099 34.6155 16.6153H30.4616C30.4184 16.6153 30.3751 16.6153 30.3318 16.6153C30.2886 16.6153 30.2453 16.6153 30.202 16.6153C30.1588 16.6153 30.1155 16.6153 30.0722 16.6153ZM9.04338 25.399C8.72968 25.4423 8.43761 25.5991 8.22126 25.8317L5.27895 28.774C4.8679 29.1093 4.67859 29.6448 4.79759 30.164C4.91657 30.6778 5.32222 31.0835 5.83605 31.2025C6.35528 31.3215 6.89073 31.1322 7.22607 30.7211L10.1684 27.7788C10.5794 27.384 10.7038 26.7728 10.4821 26.2482C10.2657 25.7235 9.74109 25.3882 9.17319 25.399C9.12992 25.399 9.08665 25.399 9.04338 25.399ZM26.5241 25.399C26.0049 25.4909 25.5885 25.8696 25.4424 26.3726C25.2964 26.881 25.4478 27.4218 25.8318 27.7788L28.7741 30.7211C29.1095 31.1322 29.6449 31.3215 30.1642 31.2025C30.678 31.0835 31.0836 30.6778 31.2026 30.164C31.3216 29.6448 31.1323 29.1093 30.7213 28.774L27.779 25.8317C27.5193 25.5558 27.1624 25.4044 26.7838 25.399C26.7405 25.399 26.6972 25.399 26.654 25.399C26.6107 25.399 26.5674 25.399 26.5241 25.399ZM14.8847 30.4615C14.3168 30.4615 13.8463 30.9266 13.8463 31.5V33.5769C13.8463 34.1502 14.3168 34.6153 14.8847 34.6153H15.7501C16.2044 35.4104 17.0211 35.9567 18.0001 35.9567C18.9791 35.9567 19.7958 35.4104 20.2501 34.6153H21.1155C21.6834 34.6153 22.154 34.1502 22.154 33.5769V31.5C22.154 30.9266 21.6834 30.4615 21.1155 30.4615H14.8847Z" fill="#5B58FF"/>
</g>
<defs>
<clipPath id="clip0">
<rect width="36" height="36" fill="white"/>
</clipPath>
</defs>
</svg>

<?xml version="1.0" encoding="utf-8"?>
<!-- Generator: Adobe Illustrator 22.0.1, SVG Export Plug-In . SVG Version: 6.00 Build 0)  -->
<svg version="1.1" id="Layer_1" xmlns="http://www.w3.org/2000/svg" xmlns:xlink="http://www.w3.org/1999/xlink" x="0px" y="0px"
	 viewBox="0 0 36 36" style="enable-background:new 0 0 36 36;" xml:space="preserve">
<style type="text/css">
	.st0{clip-path:url(#SVGID_2_);}
	.st1{fill:#E7B00C;}
</style>
<g>
	<defs>
		<rect id="SVGID_1_" width="36" height="36"/>
	</defs>
	<clipPath id="SVGID_2_">
		<use xlink:href="#SVGID_1_"  style="overflow:visible;"/>
	</clipPath>
	<g class="st0">
		<path class="st1" d="M17.9,0c-0.1,0-0.1,0-0.2,0c-0.6,0.1-1.1,0.7-1.1,1.4v4.2c0,0.5,0.3,1,0.7,1.2c0.4,0.2,1,0.2,1.4,0
			c0.4-0.3,0.7-0.7,0.7-1.2V1.4c0-0.4-0.1-0.8-0.4-1.1C18.7,0.1,18.3-0.1,17.9,0z M6,4.8C5.5,4.9,5,5.3,4.9,5.8
			c-0.1,0.5,0,1,0.4,1.4l2.9,2.9c0.3,0.4,0.9,0.6,1.4,0.5c0.5-0.1,0.9-0.5,1-1c0.1-0.5-0.1-1.1-0.5-1.4L7.2,5.3
			C6.9,5,6.5,4.8,6.1,4.8C6.1,4.8,6,4.8,6,4.8z M29.6,4.8c-0.3,0-0.6,0.2-0.8,0.4l-2.9,2.9c-0.4,0.3-0.6,0.9-0.5,1.4
			c0.1,0.5,0.5,0.9,1,1c0.5,0.1,1.1-0.1,1.4-0.5l2.9-2.9c0.4-0.4,0.6-1.1,0.3-1.6C30.8,5.1,30.2,4.8,29.6,4.8z M18,9.9
			c-4.4,0-8,3.6-8,8c0,4.6,3.9,7.2,3.9,9.6V28c0,0.6,0.5,1,1,1h6.1c0.6,0,1-0.5,1-1v-0.6c0-2.3,3.9-4.9,3.9-9.6
			C26,13.5,22.4,9.9,18,9.9z M18,12.5c1,0,2,0.3,2.8,0.8c-0.1,0-0.2,0-0.3,0c-3.8,0-6.8,3.1-6.8,6.8c0,0.2,0,0.5,0,0.7
			c-0.6-0.8-1-1.9-1-3C12.7,14.9,15.1,12.5,18,12.5z M1,16.6c-0.8,0.1-1.3,0.8-1.2,1.6s0.8,1.3,1.6,1.2h4.2c0.5,0,1-0.3,1.2-0.7
			c0.2-0.4,0.2-1,0-1.4c-0.3-0.4-0.7-0.7-1.2-0.7H1.4c0,0-0.1,0-0.1,0s-0.1,0-0.1,0S1,16.6,1,16.6z M30.1,16.6
			c-0.8,0.1-1.3,0.8-1.2,1.6s0.8,1.3,1.6,1.2h4.2c0.5,0,1-0.3,1.2-0.7c0.2-0.4,0.2-1,0-1.4c-0.3-0.4-0.7-0.7-1.2-0.7h-4.2
			c0,0-0.1,0-0.1,0c0,0-0.1,0-0.1,0C30.2,16.6,30.1,16.6,30.1,16.6z M9,25.4c-0.3,0-0.6,0.2-0.8,0.4l-2.9,2.9
			c-0.4,0.3-0.6,0.9-0.5,1.4c0.1,0.5,0.5,0.9,1,1c0.5,0.1,1.1-0.1,1.4-0.5l2.9-2.9c0.4-0.4,0.5-1,0.3-1.5c-0.2-0.5-0.7-0.9-1.3-0.8
			C9.1,25.4,9.1,25.4,9,25.4z M26.5,25.4c-0.5,0.1-0.9,0.5-1.1,1c-0.1,0.5,0,1,0.4,1.4l2.9,2.9c0.3,0.4,0.9,0.6,1.4,0.5
			c0.5-0.1,0.9-0.5,1-1c0.1-0.5-0.1-1.1-0.5-1.4l-2.9-2.9c-0.3-0.3-0.6-0.4-1-0.4c0,0-0.1,0-0.1,0C26.6,25.4,26.6,25.4,26.5,25.4z
			 M14.9,30.5c-0.6,0-1,0.5-1,1v2.1c0,0.6,0.5,1,1,1h0.9C16.2,35.4,17,36,18,36s1.8-0.5,2.3-1.3h0.9c0.6,0,1-0.5,1-1v-2.1
			c0-0.6-0.5-1-1-1H14.9z"/>
	</g>
</g>
</svg>
